actions/22/gnumeric-link-external.svg

<svg id="svg8" version="1.1" viewBox="0 0 22 22" xmlns="http://www.w3.org/2000/svg">
    <defs id="defs3051">
        <style id="current-color-scheme" type="text/css">.ColorScheme-Text {
        color:#eff0f1;
      }</style>
    </defs>
    <path id="path4" class="ColorScheme-Text" d="m6 5v2h-3v1h3v2h4v-1h-3v-3h3v-1zm6 0v1h3v3h-3v1h4v-2h3v-1h-3v-2zm-2 2v1h2v-1z" fill="currentColor"/>
    <path id="path6" d="m16 14v2h-2v1h2v2h1v-2h2v-1h-2v-2z" fill="#1d99f3"/>
</svg>

<svg xmlns="http://www.w3.org/2000/svg" viewBox="0 0 22 22">
  <defs id="defs3051">
    <style type="text/css" id="current-color-scheme">
      .ColorScheme-Text {
        color:#232629;
      }
      .ColorScheme-Highlight {
        color:#3daee9;
      }
      </style>
  </defs>
 <path 
    style="fill:currentColor;fill-opacity:1;stroke:none" 
	d="M 6 5 L 6 7 L 3 7 L 3 8 L 6 8 L 6 10 L 10 10 L 10 9 L 7 9 L 7 6 L 10 6 L 10 5 L 6 5 z M 12 5 L 12 6 L 15 6 L 15 9 L 12 9 L 12 10 L 16 10 L 16 8 L 19 8 L 19 7 L 16 7 L 16 5 L 12 5 z M 10 7 L 10 8 L 12 8 L 12 7 L 10 7 z "
	class="ColorScheme-Text"
    />
  <path
    style="fill:currentColor;fill-opacity:1;stroke:none" 
     d="M 16 14 L 16 16 L 14 16 L 14 17 L 16 17 L 16 19 L 17 19 L 17 17 L 19 17 L 19 16 L 17 16 L 17 14 L 16 14 z "
	class="ColorScheme-Highlight"
     />
</svg>
